X: 235
T: Wuhua qiang
%%abc-version 2.0
%%abcx-abcm2ps-target-version 5.9.1 (29 Sep 2008)
%%abc-creator hum2abc beta
%%abcx-conversion-date 2013/10/02 07:52:29
%%abc-edited-by Helmut Schaffrath
%%humdrum-veritas 2139067389
%%humdrum-veritas-data 2230424780
%%continueall 1
%%barnumbers 0
L: 1/8
M: 2/4
K: Bb
zc2d [I:setbarnb 1]| 
B3c | 
zB2B | 
B G/ B/c2 | 
z f d f | 
c dB2 | 
G c/ d/ A G | 
F4 | 
z B G F | 
B4 | 
B G/ B/c2 | 
z f d f | 
c d/ c/ B A/ G/ | 
F G/ F/ z B | 
f gB2 | 
c/ f/ d/ c/ B B- | 
B cB2 | 
zD2G | 
F2G D | 
F2z2 |]  



